resources/svg/minor-last-non-direct-click-model.svg

<svg xmlns="http://www.w3.org/2000/svg" viewBox="0 0 20 20" fill="currentColor"><path d="M4 12C4.55228 12 5 12.4477 5 13L5 16C5 16.5523 4.55228 17 4 17C3.44772 17 3 16.5523 3 16L3 13C3 12.4477 3.44772 12 4 12Z" fill="#5C5F62"/><path d="M8 12C8.55228 12 9 12.4477 9 13V16C9 16.5523 8.55228 17 8 17C7.44772 17 7 16.5523 7 16V13C7 12.4477 7.44772 12 8 12Z" fill="#5C5F62"/><path d="M12 3C12.5523 3 13 3.44772 13 4L13 16C13 16.5523 12.5523 17 12 17C11.4477 17 11 16.5523 11 16L11 4C11 3.44772 11.4477 3 12 3Z" fill="#5C5F62"/><path d="M16 12C16.5523 12 17 12.4477 17 13V16C17 16.5523 16.5523 17 16 17C15.4477 17 15 16.5523 15 16V13C15 12.4477 15.4477 12 16 12Z" fill="#5C5F62"/></svg>

<svg xmlns="http://www.w3.org/2000/svg" viewBox="0 0 20 20" fill="currentColor"><path d="M4 12a1 1 0 0 1 1 1v3a1 1 0 1 1-2 0v-3a1 1 0 0 1 1-1Z"/><path d="M8 12a1 1 0 0 1 1 1v3a1 1 0 1 1-2 0v-3a1 1 0 0 1 1-1Z"/><path d="M12 3a1 1 0 0 1 1 1v12a1 1 0 1 1-2 0v-12a1 1 0 0 1 1-1Z"/><path d="M16 12a1 1 0 0 1 1 1v3a1 1 0 1 1-2 0v-3a1 1 0 0 1 1-1Z"/></svg>
